X: 1
T: Oakum
M: 12/8
L: 1/8
R: slide
K: Ador
|:G|E2A ABA G2A B2d|edB d2B A2G E2D|
E2A ABA G2A B2d|edB d2B A3 A2:|
d|e3 edB d3 dBd|edB d2B A2G E2D|
e3 edB d3 dBd|edB d2B A3 A2d|
e3 edB d3 dBd|edB d2B A2G E2D|
E2A ABA G2A B2d|edB d2B A3 A2||
